!!!OTL: ES RITT EIN JAEGERSMANN WOHLGEMUTH
!!!ARE: Europa, Mitteleuropa, Deutschland
!!!SCT: F0640
!!!YEM: Copyright 1995, estate of Helmut Schaffrath.
**kern
*ICvox
*Ivox
*M6/8
*k[f#c#g#]
*A:
{8e
=1
4a
8cc#
8cc#
8b
8a
=2
4b
8g#
4e}
{8b
=3
4b
8dd
8dd
8cc#
8b
=4
4cc#
8b
4a
8r}
=5
{4a
8e
8f#
8f#
8e
=6
16a
16a
8a
8e
16f#
16f#
8e}
{8a
=7
4a
8e
8cc#
8b
8a
=8
4b
8cc#
4a}
==
!!!AGN: Staende -, Jaeger - Lied, Liebe
!!!ONB: ESAC (Essen Associative Code) Database: FINK
!!!AMT: compound duple
!!!AIN: vox
!!!EED: Helmut Schaffrath
!!!EEV: 1.0
*-
